X: 253
T:Silver Spire, The
N: page 84
N: heptatonic
R:reel
E:7
M:C|
K:D
"D"D2(3FED FA~A2|dcde fdAF|"G"~G2BG FADF|\
"Em"(3GFE FD "A"~E3F|"D"D2(3FED FA~A2|
dcde fdAF|"G"GABG FADF|"A"EA,CE "D"D3 z:|\
"A"A,B,CD EFGE|"D"(3FED EF GABc|"Bm"dcBA Bcde|
"D"fdgf "A"e3A| "D"defd "A"ceAc|"D"dcdB AFDF|\
"G"GABG "D"FADF|"A"EA,CE "D"D3z:|
